X:4837
T: On the Trail of the Lonesome Pine
O:england
B: Bob Dalsemer. Smoke on the Water.
M:4/4
L:1/8
K:G
B^A |\
"G" B2 D2 DE DB, |"A" ^C A3-A2 ^GA |"D" B2 AF D2 A2 |"G" G6 B^A |
"G" B2 D D2 E2 D |"A" ^C2 BA-A3 ^G |"A" A2 EF G2 E2 |"D" F2 G2 A2 ^A2 |
"G" B4-B A2 G |"(Dm7)" AB "G"G A2 B2 G |"C6" A4-A G2 E |"C" GA ^A "B" B2 "D" B2 =A |
"G" G2 D2 DE DB, |"A" ^C A3-A2 ^GA |"D" B2 AF D2 A2 |"G" G6 |]


